**kern	**kern
*staff2	*staff1
*clefF4	*clefG2
*k[b-]	*k[b-]
*M3/4	*M3/4
=-	=-
4r	4cc
=140	=140
2.r	(8bL
.	8ccJ
.	8ddL)
.	8cc'J
.	8b-'L
.	8a'J
=141	=141
2r	8g'L
.	8f'J
.	8e'L
.	8d'J
4BB-	(8cL
.	8eJ)
=142	=142
*	*^
(4AA	4f	4r
4GG	(8fL)	4.c
.	8eJ	.
4FF)	8fL	.
.	8aJ)	8f
=143	=143	=143
2CC 2C	(4a	(4f
.	4g)	4e)
*clefG2	*	*
4cc	4ccc	4r
*	*v	*v
=144	=144
(8bL	(8bbL
8ccJ	8cccJ
8ddL)	8dddL)
8cc'J	8ccc'J
8b-'L	8bb-'L
8a'J	8aa'J
=145	=145
8g'L	8gg'L
8f'J	8ff'J
8e'L	8ee'L
8d'J	8dd'J
(8cL	(8ccL
8B-J)	8eeJ)
=146	=146
4A	4ff
*	*^
4c	(8ffL	4cc
.	8aaJ)	.
*clefF4	*	*
4C	(8ggL	4b-
.	8eeJ)	.
=147	=147	=147
4F	4ff	4a
4FF	4r	4r
*	*v	*v
*-	*-
